X:1
T:Title
%%score { ( 1 3 5 ) | ( 2 4 ) }
L:1/8
M:4/4
K:Ab
V:1 treble nm="Grand Piano"
V:3 treble 
V:5 treble 
V:2 bass 
V:4 bass 
V:1
 z4 z2[Q:1/4=100] E2 | AAAA c2 EE | F2 A2 [CE]2 EE | AAAA AA G>A | B6 E2 | AAAA c2 EE | %6
 F2 A2 [CE]2 EE | FDF[FA] [EG]E G>B | [CA]6 AA | G2 [GB]2 [Gd]2 EE | A2 c2 c2 cc | %11
 B2 B2 [EGB][FA][EG][=DF] | G6 E2 | AAAA c2 EE | F2 A2 [CE]2 EE | FDF[FA] GE G>B |[M:3/4] [A,CA]6 | %17
[M:1/4] c>d |[M:4/4] e6 z2 | [ce]2 [Bd]4 z2 | d6 [ce]2 | [Ac]6 z2 | [A,DF]2 [A,FA]2 [Fd]3 [DF] | %23
 [DF]2 [CE]4 [CE][CE] | A2 c2 c3 e | [Ae]2 [Gd]4 EE | FDF[FA] GE G>B |[M:3/4] A6 |] %28
V:2
 z4 z2 [E,A,C]2 | [A,CE][A,CE][A,CE][A,CE] [A,EA]2 [C,A,C][C,A,C] | %2
 [D,A,D]2 [D,A,D]2 [A,,A,]2 [A,C][A,C] | [A,CE][A,CE][A,CE][A,CE] [A,CE][A,CE] [E,B,E]>[E,CE] | %4
 [E,DE]6 [E,A,C]2 | [A,CE][A,CE][A,CE][A,CE] [A,EA]2[K:bass] [E,A,C][E,A,C] | %6
 [D,A,D]2 [D,A,D]2 [A,,A,]2 [C,A,C][C,A,C] | %7
 [D,A,D][D,A,][D,A,D][D,A,] [D,B,][D,B,] [D,B,D]>[D,B,D] | [A,,A,]6 [A,CE][A,CE] | %9
 [E,B,E]2 [E,D]2 [E,B,]2 [E,A,C][E,A,C] | [A,CE]2 [A,EA]2 [A,EA]2 [A,EA][A,EA] | %11
 [B,EG]2 [B,EG]2[K:bass] B,,[B,,B,][B,,B,][B,,B,] | [E,B,E]6 [E,A,C]2 | %13
 [A,CE][A,CE][A,CE][A,CE] [A,EA]2[K:bass] [C,A,C][C,A,C] | %14
 [D,A,D]2 [D,A,D]2 [A,,A,]2 [C,A,C][C,A,C] | %15
 [D,A,D][D,A,][D,A,D][D,A,] [E,B,E][E,B,] [E,B,D]>[E,B,D] |[M:3/4] A,,6 |[M:1/4][K:treble] A>B | %18
[M:4/4] c6[K:bass] z2 | [E,C]E, E,>E, E,2[K:treble] GA | B6[K:bass] z E,[K:treble] | %21
 A,A, A,>A,[K:bass] A,2 A,,A,, | D,2 D,2 [D,A,]3 [D,A,] | [A,,A,]2 [A,,A,]4 [A,,A,][A,,A,] | %24
 [A,CE]2 [A,EA]2 [A,EA]3 [A,CA] | [E,C]2 [E,B,]4 [C,A,C][C,A,C] | %26
 [D,A,D][D,A,][D,A,D][D,A,] [E,B,E][E,B,] [E,B,D]>[E,B,D] |[M:3/4] [A,C]6 |] %28
V:3
 x8 | x8 | x8 | x8 | x8 | x8 | x8 | x8 | x8 | x8 | x8 | x8 | x8 | x8 | x8 | x8 |[M:3/4] x6 | %17
[M:1/4] x2 |[M:4/4] z2 CC Cc[df][ce] | z C E>E E2 Bc | z2 EE E[EAc] .E>d | EE E>E E2 [A,CE][A,CE] | %22
 x8 | x8 | x8 | x8 | x8 |[M:3/4] x6 |] %28
V:4
 x8 | x8 | x8 | x8 | x8 | x6[K:bass] x2 | x8 | x8 | x8 | x8 | x8 | x4[K:bass] x4 | x8 | %13
 x6[K:bass] x2 | x8 | x8 |[M:3/4] x6 |[M:1/4][K:treble] x2 | %18
[M:4/4] z2 A,A, A,[A,CA][K:bass][A,D][A,C] | x6[K:treble] x2 | %20
 z2[K:bass] E,E, E,E, .E,>[K:treble]B | x4[K:bass] x4 | x8 | x8 | x8 | x8 | x8 |[M:3/4] x6 |] %28
V:5
 x8 | x8 | x8 | x8 | x8 | x8 | x8 | x8 | x8 | x8 | x8 | x8 | x8 | x8 | x8 | x8 |[M:3/4] x6 | %17
[M:1/4] x2 |[M:4/4] x8 | x8 | z4 z2 z E | x8 | x8 | x8 | x8 | x8 | x8 |[M:3/4] x6 |] %28

